X:48
T:Ashley’s Flag. WM.048
M:C
L:1/8
Q:1/2=90
S:Wm.Mittell’s MS, New Romney,Kent,1799
R:.Hornpipe
O:England
A:Kent
Z:vmp.Chris Partington
K:G
Bc|d2BG cAGF|G2G2G3D|E2G2D2G2|ABcA GFED|!
d2BGc2AF|G2g2g2ef|gfed fed^c|d2d2d2:|!
|:Bc|dcBA Gfed|c2A2A2AB|cBAG Fedc|B2G2-G2D2|!
E2g2D2f2|C2e2B,2d2|cBAG DGFA|G2G2-G2:|

